ligands/haptic/eta4-butadiene.svg

<svg height="51" viewBox="0 0 80 51" width="80" xmlns="http://www.w3.org/2000/svg"><g transform="matrix(.05 0 0 .05 -103 -214)"><path d="m2547.09 4332.77 8.14 19.96-428.28 414.46-13.9-14.38z"/><path d="m2573.5 4407.41 13.91 14.37-410.39 397.15-13.9-14.38z"/><path d="m3155.01 4329.61-7.71 20.04-592.07 3.08-8.14-19.96z"/><path d="m3600.91 4736.9-13.49 14.76-440.12-402.01 7.71-20.04z"/><path d="m3552.35 4790.06-13.49 14.76-422.23-385.66 13.49-14.77z"/><path d="m2869.98 5259.33-19.99.67-1.81-54.52 19.99-.66z"/><path d="m2866.35 5150.3-19.99.67-1.82-54.52 19.99-.66z"/><path d="m2862.71 5041.27-19.98.67-1.82-54.52 19.99-.66z"/><path d="m2859.08 4932.24-19.99.67-1.82-54.52 19.99-.66z"/><path d="m2855.45 4823.21-19.99.67-1.82-54.52 19.99-.66z"/><path d="m2851.81 4714.18-19.99.67-1.81-54.52 19.98-.66z"/></g></svg>

<svg xmlns="http://www.w3.org/2000/svg" xmlns:xlink="http://www.w3.org/1999/xlink" width="80" height="51" version="1.1" viewBox="0 0 80 51" style="background-color:#ffffff00"><path fill="#000" stroke="none" d="M 2547.09,4332.77 L 2555.23,4352.73 L 2126.95,4767.19 L 2113.05,4752.81 L 2547.09,4332.77 Z" transform="matrix(0.05 0 0 0.05 -103 -214)"/><path fill="#000" stroke="none" d="M 2573.5,4407.41 L 2587.41,4421.78 L 2177.02,4818.93 L 2163.12,4804.55 L 2573.5,4407.41 Z" transform="matrix(0.05 0 0 0.05 -103 -214)"/><path fill="#000" stroke="none" d="M 3155.01,4329.61 L 3147.3,4349.65 L 2555.23,4352.73 L 2547.09,4332.77 L 3155.01,4329.61 Z" transform="matrix(0.05 0 0 0.05 -103 -214)"/><path fill="#000" stroke="none" d="M 3600.91,4736.9 L 3587.42,4751.66 L 3147.3,4349.65 L 3155.01,4329.61 L 3600.91,4736.9 Z" transform="matrix(0.05 0 0 0.05 -103 -214)"/><path fill="#000" stroke="none" d="M 3552.35,4790.06 L 3538.86,4804.82 L 3116.63,4419.16 L 3130.12,4404.39 L 3552.35,4790.06 Z" transform="matrix(0.05 0 0 0.05 -103 -214)"/><path fill="#000" stroke="none" d="M 2869.98,5259.33 L 2849.99,5260 L 2848.18,5205.48 L 2868.17,5204.82 L 2869.98,5259.33 Z" transform="matrix(0.05 0 0 0.05 -103 -214)"/><path fill="#000" stroke="none" d="M 2866.35,5150.3 L 2846.36,5150.97 L 2844.54,5096.45 L 2864.53,5095.79 L 2866.35,5150.3 Z" transform="matrix(0.05 0 0 0.05 -103 -214)"/><path fill="#000" stroke="none" d="M 2862.71,5041.27 L 2842.73,5041.94 L 2840.91,4987.42 L 2860.9,4986.76 L 2862.71,5041.27 Z" transform="matrix(0.05 0 0 0.05 -103 -214)"/><path fill="#000" stroke="none" d="M 2859.08,4932.24 L 2839.09,4932.91 L 2837.27,4878.39 L 2857.26,4877.73 L 2859.08,4932.24 Z" transform="matrix(0.05 0 0 0.05 -103 -214)"/><path fill="#000" stroke="none" d="M 2855.45,4823.21 L 2835.46,4823.88 L 2833.64,4769.36 L 2853.63,4768.7 L 2855.45,4823.21 Z" transform="matrix(0.05 0 0 0.05 -103 -214)"/><path fill="#000" stroke="none" d="M 2851.81,4714.18 L 2831.82,4714.85 L 2830.01,4660.33 L 2849.99,4659.67 L 2851.81,4714.18 Z" transform="matrix(0.05 0 0 0.05 -103 -214)"/></svg>
